X:155
T: De Mayersohn (2-30), S. 131
N: K1130
O: Luxemburg
S: KINTZELE, Guillaume: An der Ucht, Bd. 2, Luxemburg 1927]
R: Werbung, Beischlaf]
M: 4/4
L: 1/16
K: F
C4 | F4F4G4c4 | A4G4F4
F2A2 | c2c2c2c2d2c2B2d2 | c6B2A4
c2B2 | A2c2d2c2B2A2G2A2 | B4
c2B2A4A4 | A4B2A2G3FG3F | G8z4
C2C2 | F4F4A2G2F2A2 | c4f4c4A2F2 | G8F4

